lib/assets/profile/logIn/active.svg

<svg width="48" height="48" viewBox="0 0 48 48" fill="none" xmlns="http://www.w3.org/2000/svg" xmlns:xlink="http://www.w3.org/1999/xlink">
<path d="M24 46C36.1503 46 46 36.1503 46 24C46 11.8497 36.1503 2 24 2C11.8497 2 2 11.8497 2 24C2 36.1503 11.8497 46 24 46Z" fill="url(#pattern0)"/>
<path d="M44.7778 24C44.7778 35.4753 35.4753 44.7778 24 44.7778V47.2222C36.8253 47.2222 47.2222 36.8253 47.2222 24H44.7778ZM24 44.7778C12.5247 44.7778 3.22222 35.4753 3.22222 24H0.777778C0.777778 36.8253 11.1747 47.2222 24 47.2222V44.7778ZM3.22222 24C3.22222 12.5247 12.5247 3.22222 24 3.22222V0.777778C11.1747 0.777778 0.777778 11.1747 0.777778 24H3.22222ZM24 3.22222C35.4753 3.22222 44.7778 12.5247 44.7778 24H47.2222C47.2222 11.1747 36.8253 0.777778 24 0.777778V3.22222Z" fill="#EBEBEB"/>
<defs>
<pattern id="pattern0" patternContentUnits="objectBoundingBox" width="1" height="1">
<use xlink:href="#image0_3300_6066" transform="scale(0.015625)"/>
</pattern>
<image id="image0_3300_6066" width="64" height="64" xlink:href="data:image/png;base64,iVBORw0KGgoAAAANSUhEUgAAAEAAAABACAYAAACqaXHeAAAAAXNSR0IArs4c6QAAAONJREFUeF7t20EOhEAIRFG4/6F7DvEnYeFzryQIv6pBd2behOu9dPvsbog+k+NLgArQAqmJcw9iAAhSgZKB3IJkkAySQTJ4CiE+gA8oBeg0mH3Ai084P89HhqwEqIA209ICsQdjAeaZIgaAYKxBDMCAYy8fXwAIgiAIcoJpJEYGI4VjB3YrbC9gL2AvkCB43cM5PgZgAAZgQFnNZAhdGykQBEEQBEEQDBmgAm2glM/z+QUYisYUGoldO7kY32IEAzCg6RgIRgjFAsw+AgRBMNYgBmCAT2TCYfoPPz/HCqQCX1eBHzHnv7C7WhBSAAAAAElFTkSuQmCC"/>
</defs>
</svg>

<svg width="48" height="48" viewBox="0 0 48 48" fill="none" xmlns="http://www.w3.org/2000/svg" xmlns:xlink="http://www.w3.org/1999/xlink"><path d="M24 46c12.15 0 22-9.85 22-22S36.15 2 24 2 2 11.85 2 24s9.85 22 22 22Z" fill="url(#a)"/><path d="M44.778 24c0 11.475-9.303 20.778-20.778 20.778v2.444c12.825 0 23.222-10.397 23.222-23.222h-2.444ZM24 44.778C12.525 44.778 3.222 35.475 3.222 24H.778C.778 36.825 11.175 47.222 24 47.222v-2.444ZM3.222 24C3.222 12.525 12.525 3.222 24 3.222V.778C11.175.778.778 11.175.778 24h2.444ZM24 3.222c11.475 0 20.778 9.303 20.778 20.778h2.444C47.222 11.175 36.825.778 24 .778v2.444Z" fill="#EBEBEB"/><defs><pattern id="a" patternContentUnits="objectBoundingBox" width="1" height="1"><use xlink:href="#b" transform="scale(.01563)"/></pattern><image id="b" width="64" height="64" xlink:href="data:image/png;base64,iVBORw0KGgoAAAANSUhEUgAAAEAAAABACAYAAACqaXHeAAAAAXNSR0IArs4c6QAAAONJREFUeF7t20EOhEAIRFG4/6F7DvEnYeFzryQIv6pBd2behOu9dPvsbog+k+NLgArQAqmJcw9iAAhSgZKB3IJkkAySQTJ4CiE+gA8oBeg0mH3Ai084P89HhqwEqIA209ICsQdjAeaZIgaAYKxBDMCAYy8fXwAIgiAIcoJpJEYGI4VjB3YrbC9gL2AvkCB43cM5PgZgAAZgQFnNZAhdGykQBEEQBEEQDBmgAm2glM/z+QUYisYUGoldO7kY32IEAzCg6RgIRgjFAsw+AgRBMNYgBmCAT2TCYfoPPz/HCqQCX1eBHzHnv7C7WhBSAAAAAElFTkSuQmCC"/></defs></svg>
